X:1
T:Title
%%score { ( 1 4 ) | ( 2 3 ) }
L:1/8
Q:1/4=100
M:2/4
K:Bb
V:1 treble nm="Grand Piano"
V:4 treble 
V:2 bass 
V:3 bass 
V:1
 [DF]2 [EG]>[EG] | [DF]2 [DB]2 | AB cA | [DB]d [DF]2 | [DF]2 [EG]>[EG] | [DF]2 [Fd]2 | %6
w: Robert~Lowry * *||||||
 [Fc][FA] [=EG][EA] | z2 F2 | [DF]2 [EG]>[EG] | [DF]2 [DB]2 | AB cA | [DB]d [DF]2 | %12
w: ||||||
 [EG]2 [Ge]>[Ge] | [Gd]2 [Gc]2 | BA GA | [DB]4 | c>c c2 | A[GB] [Ac][GA] | [^Fd]>[Fd] [Fd]2 | %19
w: |||||||
 [GB][Ac] [Bd][GB] | [Ge]>[Ge] [Ge][Gd] | [CGc][CGB] [CFA][DGB] | [CFA]2 .[C=EG]2 | [A,F]4 | %24
w: |||||
 [DF]2 [EG]>[EG] | [DF]2 [DB]2 | AB cA | [DB]d [DF]2 | [EG]2 [Ge]>[Ge] | [Gd]2 [Gc]2 | BA GA | %31
w: |||||||
[M:6/4] .[DB]6 z6 |] %32
w: |
V:2
 [B,,B,]2 [B,,B,]>[B,,B,] | [B,,B,]2 [B,,F,]2 | [F,C][F,D] [F,E][F,C] | F,[B,F] [B,,B,]2 | %4
 [B,,B,]2 [B,,B,]>[B,,B,] | [B,,B,]2 [B,,B,]2 | [C,A,][C,C] [C,B,][C,C] | [F,A,]4 | %8
 [B,,B,]2 [B,,B,]>[B,,B,] | [B,,B,]2 [B,,F,]2 | [F,C][F,D] [F,E][F,C] | F,[B,F] [B,,B,]2 | %12
 [E,B,]2 [C,C]>[C,C] | [D,=B,]2 [E,C]2 | [F,DF][F,CF] [F,B,E][F,CE] | [B,,B,]4 | %16
 [F,A,F]>[F,A,F] [F,A,F]2 | [F,CF][F,C] [F,C][E,_D] | [D,D]>[D,D] [D,D]2 | [G,D][G,D] [G,D][G,D] | %20
 [C,C]>[C,C] [C,C][D,=B,] | E,=E, F,B,, | C,2 z B, | z2 F,2 | [B,,B,]2 [B,,B,]>[B,,B,] | %25
 [B,,B,]2 [B,,F,]2 | [F,C][F,D] [F,E][F,C] | B,,-[B,,B,F] [B,,B,]2 | [E,B,]2 [C,C]>[C,C] | %29
 [D,=B,]2 [E,C]2 | [F,DF][F,CF] [F,B,E][F,CE] |[M:6/4] .[B,,B,]6 z6 |] %32
V:3
 x4 | x4 | x4 | B,,2 z2 | x4 | x4 | x4 | x4 | x4 | x4 | x4 | B,,2 z2 | x4 | x4 | x4 | x4 | x4 | %17
 x4 | x4 | x4 | x4 | x4 | z2 C,2 | F,2 z/ E,/D,/C,/ | x4 | x4 | x4 | .F,2 z2 | x4 | x4 | x4 | %31
[M:6/4] x12 |] %32
V:4
 x4 | x4 | x4 | x4 | x4 | x4 | x4 | F2 z/ E/D/E/ | x4 | x4 | x4 | x4 | x4 | x4 | x4 | x4 | x4 | %17
 x4 | x4 | x4 | x4 | x4 | x4 | x4 | x4 | x4 | x4 | x4 | x4 | x4 | x4 |[M:6/4] x12 |] %32

